X: 20644
T: BELLINA'S QUICK STEP
C:
%R: jig, quickstep
B: Elias Howe "The Musician's Companion" 1843 p.64 #2
S: http://imslp.org/wiki/The_Musician's_Companion_(Howe,_Elias)
Z: 2015 John Chambers <jc:trillian.mit.edu>
N: It's not clear whether the p/f dynamic markings apply to the 1st strain (above) or the 2nd (below).
M: 6/8
L: 1/8
K: F
% - - - - - - - - - - - - - - - - - - - - - - - - -
!f!F |\
A2F c2A | f3 fed | !p!c>dc cBA | AG2 GG2 |\
!f!A2F c2A | f3 fag | fag fed | {d}c2c c2 :|
|: D |\
G2G GAB | A2A ABc | !p!cBA cBA | G2G G2c |\
f2a f2a | g2b g2b | agf gfe | f2f f2 :|
% - - - - - - - - - - - - - - - - - - - - - - - - -

%%sep 1 1 500

